SharedPackages/Infrastructure/DesignResourcesKitIcons/Sources/DesignResourcesKitIcons/DesignSystemImages.xcassets/Color/24px/Paid-Ai-Chat-Color-24.imageset/Paid-Ai-Chat-Color-24.svg

<svg width="24" height="24" viewBox="0 0 24 24" fill="none" xmlns="http://www.w3.org/2000/svg">
<path d="M16.2147 2.92908C16.6213 1.65918 18.4792 1.69112 18.8127 3.0249L18.9965 3.75952C19.1496 4.37206 19.6279 4.85036 20.2405 5.00354L20.9751 5.18726C22.3089 5.52081 22.3407 7.37846 21.0708 7.78503C21.667 9.06591 22 10.4941 22 12C22 17.5228 17.5228 22 12 22C6.47715 22 2 17.5228 2 12C2 6.47715 6.47715 2 12 2C13.5058 2 14.9339 2.33295 16.2147 2.92908Z" fill="#DE5833"/>
<path fill-rule="evenodd" clip-rule="evenodd" d="M13.4063 19.4609C13.4063 19.3828 13.4254 19.365 13.1771 18.87C12.5171 17.5483 11.8538 15.685 12.1554 14.4833C12.2104 14.265 11.5338 6.39834 11.0554 6.145C10.5238 5.86167 9.8696 5.41221 9.27127 5.31221C8.96769 5.26364 8.56965 5.28665 8.25849 5.32855C8.20319 5.336 8.2009 5.4354 8.25375 5.45331C8.45804 5.52252 8.70609 5.64269 8.85228 5.82438C8.87995 5.85877 8.84281 5.91286 8.7987 5.91449C8.6609 5.9196 8.41091 5.97737 8.08108 6.25751C8.04294 6.28991 8.07462 6.35008 8.12372 6.34036C8.83255 6.20013 9.55646 6.26922 9.98308 6.65699C10.0108 6.68215 9.99629 6.7273 9.9602 6.7371C6.25798 7.7432 6.99086 10.9637 7.97643 14.9158C8.85313 18.4313 9.18378 19.5677 9.28841 19.915C9.29876 19.9494 9.32293 19.9766 9.35625 19.9899C10.6313 20.4969 13.4063 20.5191 13.4063 19.6563V19.4609Z" fill="#DDDDDD"/>
<path d="M12 3.06238C13.4119 3.06238 14.7476 3.38875 15.9358 3.96998C15.7671 4.39927 15.4318 4.7419 15.0077 4.92029C14.0834 4.52885 13.067 4.31238 12 4.31238C7.73707 4.31238 4.28128 7.76821 4.28125 12.0311C4.28125 16.2941 7.73705 19.7499 12 19.7499C16.2629 19.7499 19.7188 16.2941 19.7188 12.0311C19.7187 10.9439 19.4939 9.90922 19.0883 8.97095C19.2709 8.55245 19.6147 8.22288 20.0431 8.05872C20.6356 9.25609 20.9687 10.6047 20.9688 12.0311C20.9688 16.9844 16.9533 20.9999 12 20.9999C7.0467 20.9999 3.03125 16.9844 3.03125 12.0311C3.03128 7.07785 7.04671 3.06238 12 3.06238ZM17.1816 3.27344C17.2645 2.94206 17.7355 2.94206 17.8184 3.27344L18.0021 4.00806C18.2471 4.9879 19.0121 5.75297 19.9919 5.99793L20.7264 6.18152C21.0579 6.26439 21.0579 6.7355 20.7264 6.81836L19.9919 7.00196C19.0121 7.24692 18.2471 8.01199 18.0021 8.99183L17.8184 9.72645C17.7355 10.0578 17.2645 10.0578 17.1816 9.72645L16.9979 8.99183C16.7529 8.01199 15.9879 7.24692 15.0081 7.00196L14.2736 6.81836C13.9421 6.7355 13.9421 6.26439 14.2736 6.18152L15.0081 5.99793C15.9879 5.75296 16.753 4.98781 16.9979 4.00794L17.1816 3.27344Z" fill="white"/>
<path d="M13.9138 20.203C13.4645 20.3788 12.5856 20.4569 12.0778 20.4569C11.3333 20.4569 10.2614 20.3397 9.87079 20.1639C9.62955 19.4215 8.90755 17.1201 8.1946 14.1976C8.17127 14.1019 8.14796 14.0067 8.12478 13.912L8.1242 13.9097C7.27664 10.4478 6.58439 7.62021 10.3784 6.73192C10.4131 6.7238 10.4301 6.68233 10.4071 6.65509C9.9718 6.13866 9.15631 5.9694 8.12515 6.32513C8.08286 6.33972 8.04614 6.29708 8.07241 6.26087C8.27462 5.98216 8.66976 5.76786 8.86484 5.67392C8.90516 5.6545 8.90271 5.59547 8.86 5.5821C8.73239 5.54216 8.51514 5.48103 8.27075 5.44159C8.21294 5.43226 8.20772 5.33317 8.26577 5.32536C9.72761 5.12868 11.2541 5.56756 12.0201 6.5325C12.0274 6.54159 12.0378 6.54794 12.0491 6.55037C14.8543 7.15278 15.0551 11.5871 14.732 11.789C14.6683 11.8289 14.4641 11.806 14.1948 11.7759C13.1033 11.6538 10.942 11.4119 12.7258 14.7364C12.7434 14.7692 12.7201 14.8127 12.6833 14.8184C11.6773 14.9748 12.9664 18.1267 13.9138 20.203Z" fill="white"/>
<path fill-rule="evenodd" clip-rule="evenodd" d="M10.6358 12.6885C10.7221 12.313 11.1244 11.6054 12.5609 11.6225C13.2872 11.6195 14.1893 11.6222 14.7874 11.5543C15.6763 11.4533 16.3362 11.2383 16.7759 11.0707C17.3977 10.8335 17.6184 10.8864 17.6958 11.0283C17.7808 11.1843 17.6806 11.4536 17.4633 11.7015C17.0483 12.1751 16.3022 12.5421 14.9844 12.651C13.6667 12.7599 12.7937 12.4064 12.4179 12.9819C12.2558 13.2301 12.3811 13.8151 13.6555 13.9993C15.3775 14.2479 16.7918 13.6999 16.9665 14.0308C17.1412 14.3618 16.1346 15.0351 14.4098 15.0492C12.685 15.0633 11.6077 14.4453 11.2256 14.1381C10.7409 13.7484 10.524 13.18 10.6358 12.6885Z" fill="#FFCC33"/>
<path d="M12.8322 8.58235C12.9284 8.42482 13.1417 8.30322 13.4909 8.30322C13.84 8.30322 14.0043 8.44215 14.118 8.59707C14.1411 8.62858 14.1061 8.66568 14.0702 8.65016C14.0615 8.64644 14.0528 8.64262 14.0439 8.63874C13.9162 8.58297 13.7595 8.5145 13.4909 8.51068C13.2036 8.50659 13.0225 8.57853 12.9084 8.64055C12.87 8.66144 12.8094 8.61969 12.8322 8.58235Z" fill="#14307E"/>
<path d="M8.90154 8.7839C9.24055 8.64222 9.50699 8.66054 9.69536 8.70509C9.73501 8.71448 9.76258 8.6718 9.73086 8.64622C9.58466 8.52829 9.25746 8.38189 8.8307 8.54103C8.45003 8.68298 8.27059 8.9779 8.26953 9.17181C8.26928 9.21751 8.3633 9.22139 8.38762 9.1827C8.45331 9.07818 8.56253 8.92558 8.90154 8.7839Z" fill="#14307E"/>
<path fill-rule="evenodd" clip-rule="evenodd" d="M13.7874 10.7375C13.4877 10.7375 13.2446 10.495 13.2446 10.1966C13.2446 9.89826 13.4877 9.65583 13.7874 9.65583C14.0871 9.65583 14.3303 9.89826 14.3303 10.1966C14.3303 10.495 14.0871 10.7375 13.7874 10.7375ZM14.1697 10.0175C14.1697 9.94022 14.1065 9.87762 14.0292 9.87762C13.9519 9.87762 13.8893 9.94022 13.8887 10.0175C13.8887 10.0947 13.9519 10.1574 14.0292 10.1574C14.1071 10.1574 14.1697 10.0947 14.1697 10.0175Z" fill="#14307E"/>
<path fill-rule="evenodd" clip-rule="evenodd" d="M10.191 10.5709C10.191 10.9193 9.90794 11.2017 9.55828 11.2017C9.20928 11.2017 8.92555 10.9193 8.92555 10.5709C8.92555 10.2226 9.20928 9.9402 9.55828 9.9402C9.90728 9.9402 10.191 10.2226 10.191 10.5709ZM10.0045 10.3618C10.0045 10.2719 9.93125 10.1986 9.84067 10.1986C9.75076 10.1986 9.6775 10.2712 9.67683 10.3618C9.67683 10.4517 9.75009 10.525 9.84067 10.525C9.93125 10.525 10.0045 10.4517 10.0045 10.3618Z" fill="#14307E"/>
<path d="M15.1687 16.1714C14.9551 16.0725 14.134 16.6613 13.5891 17.1133C13.4752 16.9522 13.2604 16.835 12.776 16.9193C12.352 16.993 12.118 17.0952 12.0135 17.2715C11.3443 17.0177 10.2185 16.6262 9.94653 17.0043C9.64922 17.4177 10.0208 19.3732 10.4157 19.6271C10.6219 19.7596 11.608 19.1258 12.1229 18.6887C12.206 18.8057 12.3398 18.8727 12.6147 18.8664C13.0306 18.8567 13.7051 18.7599 13.8098 18.5663C13.8162 18.5545 13.8217 18.5406 13.8263 18.5247C14.3556 18.7226 15.2872 18.9319 15.4953 18.9007C16.0376 18.8192 15.4197 16.2877 15.1687 16.1714Z" fill="#3CA82B"/>
<path d="M13.639 17.1712C13.6614 17.2113 13.6795 17.2535 13.6948 17.2965C13.7703 17.5075 13.8932 18.1788 13.8003 18.3446C13.7073 18.5105 13.1035 18.5905 12.731 18.597C12.3585 18.6034 12.2746 18.4672 12.1992 18.2561C12.1388 18.0873 12.1091 17.6904 12.1098 17.4631C12.0946 17.126 12.2177 17.0075 12.787 16.9154C13.2083 16.8472 13.431 16.9265 13.5596 17.0622C14.1577 16.6158 15.1557 15.9858 15.253 16.101C15.7383 16.6751 15.7997 18.0417 15.6946 18.5915C15.6602 18.7713 14.0532 18.4134 14.0532 18.2196C14.0532 17.4146 13.8443 17.1938 13.639 17.1712Z" fill="#4CBA3C"/>
<path d="M10.1187 16.9199C10.2503 16.7116 11.3177 16.9706 11.9036 17.2314C11.9036 17.2314 11.7832 17.7768 11.9749 18.4195C12.0309 18.6074 10.6269 19.4441 10.4436 19.3002C10.2318 19.1338 9.84204 17.3577 10.1187 16.9199Z" fill="#4CBA3C"/>
</svg>

<svg fill="none" viewBox="0 0 24 24" xmlns="http://www.w3.org/2000/svg">
  <path fill="#de5833" d="M16.215 2.93c.406-1.27 2.264-1.239 2.598.095l.184.735a1.71 1.71 0 0 0 1.244 1.244l.734.183c1.334.334 1.366 2.191.096 2.598.596 1.28.929 2.71.929 4.215 0 5.523-4.477 10-10 10S2 17.523 2 12 6.477 2 12 2c1.506 0 2.934.333 4.215.93"/>
  <path fill="#ddd" fill-rule="evenodd" d="M13.406 19.46c0-.077.02-.095-.229-.59-.66-1.322-1.323-3.185-1.022-4.387.055-.218-.621-8.085-1.1-8.338-.531-.283-1.185-.733-1.784-.833-.303-.048-.701-.025-1.013.017-.055.007-.057.106-.004.124.204.07.452.19.598.371.028.035-.01.089-.053.09-.138.006-.388.063-.718.344-.038.032-.006.092.043.082.709-.14 1.432-.07 1.86.317.027.025.012.07-.024.08-3.702 1.006-2.97 4.227-1.984 8.179.877 3.515 1.208 4.652 1.312 4.999.01.034.035.062.068.075 1.275.507 4.05.53 4.05-.334z" clip-rule="evenodd"/>
  <path fill="#fff" d="M12 3.062c1.412 0 2.748.327 3.936.908a1.7 1.7 0 0 1-.928.95 7.719 7.719 0 1 0 4.08 4.05 1.7 1.7 0 0 1 .955-.911A8.969 8.969 0 1 1 12 3.063m5.182.211c.083-.33.553-.33.636 0l.184.735a2.74 2.74 0 0 0 1.99 1.99l.734.184c.332.082.332.553 0 .636l-.734.184a2.74 2.74 0 0 0-1.99 1.99l-.184.734c-.083.332-.553.332-.636 0l-.184-.734a2.74 2.74 0 0 0-1.99-1.99l-.734-.184c-.332-.082-.332-.554 0-.636l.734-.184a2.74 2.74 0 0 0 1.99-1.99z"/>
  <path fill="#fff" d="M13.914 20.203c-.45.176-1.328.254-1.836.254-.745 0-1.817-.117-2.207-.293a88 88 0 0 1-1.676-5.966l-.07-.286v-.002c-.848-3.462-1.54-6.29 2.253-7.178.035-.008.052-.05.03-.077-.436-.516-1.252-.686-2.283-.33-.042.015-.079-.028-.053-.064.203-.279.598-.493.793-.587.04-.02.038-.079-.005-.092a4 4 0 0 0-.59-.14c-.057-.01-.062-.109-.004-.117 1.462-.196 2.988.243 3.754 1.207q.011.015.03.018c2.804.603 3.005 5.037 2.682 5.239-.064.04-.268.017-.537-.013-1.092-.122-3.253-.364-1.47 2.96.018.033-.005.077-.042.082-1.006.157.283 3.309 1.23 5.385"/>
  <path fill="#fc3" fill-rule="evenodd" d="M10.636 12.689c.086-.376.488-1.084 1.925-1.066.726-.003 1.628 0 2.226-.069a8 8 0 0 0 1.989-.483c.622-.237.842-.185.92-.043.085.156-.015.426-.233.673-.415.474-1.16.841-2.479.95-1.317.109-2.19-.245-2.566.33-.162.25-.037.834 1.238 1.018 1.721.249 3.136-.3 3.31.032.175.33-.831 1.004-2.556 1.018s-2.802-.604-3.184-.91c-.485-.39-.702-.959-.59-1.45" clip-rule="evenodd"/>
  <path fill="#14307e" d="M12.832 8.582c.096-.157.31-.279.659-.279s.513.14.627.294c.023.032-.012.069-.048.053l-.026-.011a1.3 1.3 0 0 0-.553-.128 1.14 1.14 0 0 0-.583.13c-.038.02-.099-.021-.076-.059m-3.93.202c.339-.142.605-.123.793-.079.04.01.068-.033.036-.059-.146-.118-.474-.264-.9-.105-.381.142-.56.437-.561.63 0 .047.093.05.118.012.065-.105.175-.257.514-.4"/>
  <path fill="#14307e" fill-rule="evenodd" d="M13.787 10.738a.542.542 0 1 1-.002-1.08.542.542 0 0 1 .002 1.08m.383-.72a.14.14 0 0 0-.281 0 .14.14 0 0 0 .28 0m-3.978.552a.632.632 0 1 1-1.263 0 .632.632 0 0 1 1.263 0m-.187-.208a.164.164 0 1 0-.327 0 .164.164 0 0 0 .328 0" clip-rule="evenodd"/>
  <path fill="#3ca82b" d="M15.169 16.171c-.214-.098-1.035.49-1.58.942-.114-.16-.329-.278-.813-.194-.424.074-.658.176-.762.352-.67-.253-1.795-.645-2.067-.267-.298.414.074 2.37.469 2.623.206.133 1.192-.501 1.707-.938.083.117.217.184.492.177.416-.01 1.09-.106 1.195-.3a.2.2 0 0 0 .016-.041c.53.198 1.461.407 1.67.376.542-.082-.076-2.613-.327-2.73"/>
  <path fill="#4cba3c" d="M13.639 17.171a1 1 0 0 1 .056.126c.075.21.198.882.105 1.048s-.697.245-1.069.252c-.373.006-.456-.13-.532-.34-.06-.17-.09-.567-.09-.794-.014-.337.109-.456.678-.548.421-.068.644.012.773.147.598-.446 1.596-1.076 1.693-.961.485.574.547 1.94.442 2.49-.035.18-1.642-.178-1.642-.371 0-.805-.209-1.026-.414-1.049m-3.52-.251c.131-.208 1.199.05 1.785.311 0 0-.12.546.07 1.188.057.188-1.347 1.025-1.53.881-.212-.166-.602-1.942-.325-2.38"/>
</svg>
